X: 518
T: Aaron's Key
R: jig
M: 6/8
K: Bminor
|:F2B Bcd|c2A ABc|d2B Bcd|efd cBA|
F2B Bcd|c2A ABc|dcd ede|1 fdB B2A:|2 fdB B2c||
|:d3 def|e2A a2g|~f3 fed|e2e A2c|
~B3 ~c3|~d3 ~e3|f2d c2A|1 ~B3 B2c:|2 ~B3 B2A||

